build/img/sprite_auto.svg

<svg xmlns="http://www.w3.org/2000/svg" xmlns:xlink="http://www.w3.org/1999/xlink"><symbol id="icon-logo" viewBox="0 0 68 21">
<path d="M13.3636 0V20.0455H10.0705V5.82273L8.97273 7.20682L6.825 9.975L6.72954 10.0705L6.58636 9.975L4.43864 7.20682L3.34091 5.775V20.0455H0V0H3.34091L6.72954 4.29545L10.0705 0H13.3636Z" fill="#0AD9C6"/>
<path d="M8.30444 10.0704L8.20898 9.97498L8.30444 10.0704Z" fill="#0AD9C6"/>
<path d="M8.44787 9.97498L8.35241 10.0704H8.30469L8.44787 9.97498Z" fill="#0AD9C6"/>
<path d="M38.2092 5.61453L29.0823 12.316L31.1955 15.194L40.3224 8.49252L38.2092 5.61453Z" fill="#0AD9C6"/>
<path d="M26.6674 3C22.8035 3 19.6243 6.13028 19.6243 10.0431C19.6243 13.9071 22.7546 17.0863 26.6674 17.0863C30.5313 17.0863 33.7105 13.956 33.7105 10.0431C33.7105 6.17919 30.5313 3 26.6674 3ZM26.6674 13.2712C24.8577 13.2712 23.4393 11.8039 23.4393 10.0431C23.4393 8.23344 24.9066 6.81503 26.6674 6.81503C28.4282 6.81503 29.8955 8.28235 29.8955 10.0431C29.8955 11.8039 28.4282 13.2712 26.6674 13.2712Z" fill="#0AD9C6"/>
<path d="M43.6396 3C39.7756 3 36.5964 6.13028 36.5964 10.0431C36.5964 13.9071 39.7267 17.0863 43.6396 17.0863C47.5035 17.0863 50.6827 13.956 50.6827 10.0431C50.6338 6.17919 47.5035 3 43.6396 3ZM43.6396 13.2712C41.8299 13.2712 40.4115 11.8039 40.4115 10.0431C40.4115 8.23344 41.8788 6.81503 43.6396 6.81503C45.4004 6.81503 46.8677 8.28235 46.8677 10.0431C46.8677 11.8039 45.4004 13.2712 43.6396 13.2712Z" fill="#0AD9C6"/>
<path d="M67.5977 0.238647V20.2841H64.2568V9.87956L61.4409 7.20683L59.3409 5.15456V20.2841H56V0.238647H59.2932H59.3409L63.2545 4.0091L64.2568 4.96365V0.238647H67.5977Z" fill="#0AD9C6"/>
<rect x="37" y="3" width="6" height="4" fill="#0AD9C6"/>
</symbol><symbol id="icon-play-button" viewBox="0 0 65 65">
<path fill-rule="evenodd" clip-rule="evenodd" d="M32.5 65C50.4493 65 65 50.4493 65 32.5C65 14.5507 50.4493 0 32.5 0C14.5507 0 0 14.5507 0 32.5C0 50.4493 14.5507 65 32.5 65Z" fill="#0AD9C6"/>
<path fill-rule="evenodd" clip-rule="evenodd" d="M28.6001 23.3999L41.6001 32.4999L28.6001 41.5999V23.3999Z" fill="#070707"/>
</symbol></svg>

<svg xmlns="http://www.w3.org/2000/svg" xmlns:xlink="http://www.w3.org/1999/xlink"><symbol id="icon-logo"><path d="M13.364 0v20.046H10.07V5.822L8.973 7.207 6.825 9.975l-.095.095-.144-.095L4.44 7.207l-1.1-1.432v14.27H0V0h3.34l3.39 4.295L10.07 0h3.294zm-5.06 10.07l-.095-.095.095.095z" fill="#0AD9C6"/><path d="M8.448 9.975l-.096.095h-.047l.143-.095zm29.762-4.36l-9.128 6.701 2.113 2.878 9.127-6.701-2.113-2.878z" fill="#0AD9C6"/><path d="M26.667 3c-3.864 0-7.043 3.13-7.043 7.043 0 3.864 3.13 7.043 7.043 7.043 3.864 0 7.044-3.13 7.044-7.043C33.71 6.18 30.53 3 26.667 3zm0 10.271a3.225 3.225 0 01-3.228-3.228 3.225 3.225 0 013.228-3.228c1.761 0 3.228 1.467 3.228 3.228 0 1.76-1.467 3.228-3.228 3.228zM43.64 3c-3.864 0-7.044 3.13-7.044 7.043 0 3.864 3.13 7.043 7.044 7.043 3.864 0 7.043-3.13 7.043-7.043C50.633 6.18 47.503 3 43.64 3zm0 10.271a3.225 3.225 0 01-3.229-3.228 3.225 3.225 0 013.229-3.228c1.76 0 3.228 1.467 3.228 3.228 0 1.76-1.468 3.228-3.228 3.228zM67.598.239v20.045h-3.341V9.88L61.44 7.207l-2.1-2.052v15.13H56V.238h3.341l3.913 3.77 1.003.955V.239h3.34z" fill="#0AD9C6"/><path fill="#0AD9C6" d="M37 3h6v4h-6z"/></symbol><symbol id="icon-play-button"><path fill-rule="evenodd" clip-rule="evenodd" d="M32.5 65C50.45 65 65 50.45 65 32.5S50.45 0 32.5 0 0 14.55 0 32.5 14.55 65 32.5 65z" fill="#0AD9C6"/><path fill-rule="evenodd" clip-rule="evenodd" d="M28.6 23.4l13 9.1-13 9.1V23.4z" fill="#070707"/></symbol></svg>
